material/.icons/material/volleyball.svg

<svg xmlns="http://www.w3.org/2000/svg" viewBox="0 0 24 24"><path d="M12 2a10 10 0 0110 10 10 10 0 01-10 10A10 10 0 012 12 10 10 0 0112 2m1.6 18.35c2.36-2.31 4.09-5.27 4.9-8.59-.66-.14-1.32-.22-2-.26-.94 3.61-3.09 6.72-6 8.87.5.08 1 .13 1.5.13.55 0 1.08-.05 1.6-.15m-4.37-.31c3-1.97 5.27-4.99 6.23-8.54-.75.05-1.49.15-2.19.31-1.09 3.08-3.3 5.63-6.14 7.16.64.45 1.37.81 2.1 1.07m11.27-7.67c-.34-.14-.69-.26-1.04-.37-.7 2.9-2.07 5.53-3.92 7.73a8.529 8.529 0 004.96-7.36M3.56 11.04c-.06.31-.06.64-.06.96 0 2.5 1.07 4.73 2.77 6.28.59-.28 1.14-.62 1.67-.99a18.798 18.798 0 01-4.38-6.25m1.77-4.3c-.6.76-1.07 1.61-1.38 2.54.97 2.85 2.63 5.38 4.79 7.39.51-.43.98-.9 1.41-1.41C7.74 13.03 6 10.08 5.33 6.74M8.04 4.5c-.68.35-1.31.8-1.86 1.32.53 3.39 2.19 6.41 4.59 8.65.4-.56.73-1.15 1.05-1.77a12.956 12.956 0 01-3.78-8.2m11.92 4.53C18.7 8.68 17.37 8.5 16 8.5c-1.9 0-3.72.35-5.39 1 .35.6.74 1.17 1.19 1.7a12.984 12.984 0 018.67.09 8.45 8.45 0 00-.51-2.26m-2.42-3.46C17.03 5.5 16.5 5.5 16 5.5c-2.31 0-4.53.44-6.56 1.23.18.65.42 1.27.7 1.88C11.96 7.89 13.93 7.5 16 7.5a16 16 0 013.42.37 8.545 8.545 0 00-1.88-2.3M16 4.5a8.62 8.62 0 00-4-1c-1.05 0-2.06.2-3 .55.04.58.11 1.15.21 1.7 2.1-.8 4.39-1.25 6.79-1.25z"/></svg>

<?xml version="1.0" encoding="UTF-8"?><!DOCTYPE svg PUBLIC "-//W3C//DTD SVG 1.1//EN" "http://www.w3.org/Graphics/SVG/1.1/DTD/svg11.dtd"><svg xmlns="http://www.w3.org/2000/svg" xmlns:xlink="http://www.w3.org/1999/xlink" version="1.1" id="mdi-volleyball" width="24" height="24" viewBox="0 0 24 24"><path d="M12,2A10,10 0 0,1 22,12A10,10 0 0,1 12,22A10,10 0 0,1 2,12A10,10 0 0,1 12,2M13.6,20.35C15.96,18.04 17.69,15.08 18.5,11.76C17.84,11.62 17.18,11.54 16.5,11.5C15.56,15.11 13.41,18.22 10.5,20.37C11,20.45 11.5,20.5 12,20.5C12.55,20.5 13.08,20.45 13.6,20.35M9.23,20.04C12.23,18.07 14.5,15.05 15.46,11.5C14.71,11.55 13.97,11.65 13.27,11.81C12.18,14.89 9.97,17.44 7.13,18.97C7.77,19.42 8.5,19.78 9.23,20.04M20.5,12.37C20.16,12.23 19.81,12.11 19.46,12C18.76,14.9 17.39,17.53 15.54,19.73C18.36,18.44 20.35,15.64 20.5,12.37M3.56,11.04C3.5,11.35 3.5,11.68 3.5,12C3.5,14.5 4.57,16.73 6.27,18.28C6.86,18 7.41,17.66 7.94,17.29C6.08,15.54 4.58,13.41 3.56,11.04M5.33,6.74C4.73,7.5 4.26,8.35 3.95,9.28C4.92,12.13 6.58,14.66 8.74,16.67C9.25,16.24 9.72,15.77 10.15,15.26C7.74,13.03 6,10.08 5.33,6.74M8.04,4.5C7.36,4.85 6.73,5.3 6.18,5.82C6.71,9.21 8.37,12.23 10.77,14.47C11.17,13.91 11.5,13.32 11.82,12.7C9.68,10.56 8.28,7.69 8.04,4.5M19.96,9.03C18.7,8.68 17.37,8.5 16,8.5C14.1,8.5 12.28,8.85 10.61,9.5C10.96,10.1 11.35,10.67 11.8,11.2C13.12,10.75 14.53,10.5 16,10.5C17.57,10.5 19.08,10.78 20.47,11.29C20.4,10.5 20.23,9.74 19.96,9.03M17.54,5.57C17.03,5.5 16.5,5.5 16,5.5C13.69,5.5 11.47,5.94 9.44,6.73C9.62,7.38 9.86,8 10.14,8.61C11.96,7.89 13.93,7.5 16,7.5C17.18,7.5 18.32,7.63 19.42,7.87C18.93,7 18.29,6.21 17.54,5.57M16,4.5C14.79,3.87 13.44,3.5 12,3.5C10.95,3.5 9.94,3.7 9,4.05C9.04,4.63 9.11,5.2 9.21,5.75C11.31,4.95 13.6,4.5 16,4.5Z" /></svg>
